!!! OTL: Berkowitz432
!!! Chapter: 1
!!! Section: IV
!!! Page: 107
!!! Mode: 
!!! Encoder: DJB
**kern
*staff1
*I"Piano
=1-
*clefG2
*k[f#c#]
*D:
*M3/4
4r
8b/L
8g#/J
8b/L
8a/J
=2
2g/
[4f#/
=3
4f#/]
4.c#/
8d/
=4
[2.a/
=5
8.a/L]
16B/Jk
4.c#/
8b\
=6
[2.a/
=7
8.a/L]
16B/Jk
4.c#/
8cc#\
=8
2.a/
=9
4r
8ee\L
8cc#\J
8ee\L
8dd\J
=10
2cc#\
[4b\
=11
4b\]
4.cc#\
8dd\
=12
!!linebreak:original
2.f#/
=13
4e#/
4.cc#\
8b\
=14
2.e/
=15
4d#/
4.b\
8a/
=16
2a/
4g/
=17
8r
8A/
8b/L
8a/J
8b/L
8a/J
=18
2g/
[4f#/
=19
4f#/]
4.c#/
8d/
=20
[2.a/
=21
8.a/L]
16B/Jk
4.c#/
8b\
=22
[2.a/
=23
8.a/L]
16e#/Jk
4.f#/
8ee\
=24
!!linebreak:original
2.dd\
=25
4r
8ee\L
8cc#\J
8ee\L
8dd\J
=26
2ccn\
[4b-\
=27
4b-\]
4.ccn\
8b-\
=28
2.a/
=29
4e#/
4.cc#\
8b\
=30
2b\
[4e/
=31
4e/]
4.b\
8c#/
=32
[2.d/
=33
8d/]
8r
2r
==
*-
